#src/img/admin/icon__messages.svg

<svg width="24" height="24" viewBox="0 0 24 24" fill="none" xmlns="http://www.w3.org/2000/svg">
<path d="M13.305 22.5L12 21.75L15 16.5H19.5C19.8978 16.5 20.2794 16.342 20.5607 16.0607C20.842 15.7794 21 15.3978 21 15V6C21 5.60218 20.842 5.22064 20.5607 4.93934C20.2794 4.65804 19.8978 4.5 19.5 4.5H4.5C4.10218 4.5 3.72064 4.65804 3.43934 4.93934C3.15804 5.22064 3 5.60218 3 6V15C3 15.3978 3.15804 15.7794 3.43934 16.0607C3.72064 16.342 4.10218 16.5 4.5 16.5H11.25V18H4.5C3.70435 18 2.94129 17.6839 2.37868 17.1213C1.81607 16.5587 1.5 15.7956 1.5 15V6C1.5 5.20435 1.81607 4.44129 2.37868 3.87868C2.94129 3.31607 3.70435 3 4.5 3H19.5C20.2956 3 21.0587 3.31607 21.6213 3.87868C22.1839 4.44129 22.5 5.20435 22.5 6V15C22.5 15.7956 22.1839 16.5587 21.6213 17.1213C21.0587 17.6839 20.2956 18 19.5 18H15.87L13.305 22.5Z" fill="#CA583E"/>
<path d="M6 7.5H18V9H6V7.5Z" fill="#CA583E"/>
<path d="M6 12H13.5V13.5H6V12Z" fill="#CA583E"/>
</svg>

<svg width="24" height="24" fill="none" xmlns="http://www.w3.org/2000/svg"><path d="M13.305 22.5L12 21.75l3-5.25h4.5A1.5 1.5 0 0021 15V6a1.5 1.5 0 00-1.5-1.5h-15A1.5 1.5 0 003 6v9a1.5 1.5 0 001.5 1.5h6.75V18H4.5a3 3 0 01-3-3V6a3 3 0 013-3h15a3 3 0 013 3v9a3 3 0 01-3 3h-3.63l-2.565 4.5z" fill="#CA583E"/><path d="M6 7.5h12V9H6V7.5zM6 12h7.5v1.5H6V12z" fill="#CA583E"/></svg>
